X: 22592
T: Lady Of The Lake
R: barndance
M: 4/4
K: Gmajor
D>C|B,>DG>A B>AG>B|d>BG>A G2 A>B|c>ec>B A>GF>G|A>GF>E D>CB,>A,|
G,>CE>G B>Dd>B|G>AB>A G2 A>B|c>ec>B A>GF>D|G2 B2 G2:|
|:B>B|d2 G2 g2 B>B|c2 A2 a>ba>g|f>gf>B [f2c2] c>d|e>dd>e d>BG>B|
d>BG>B [g2B2] B2|c2 A2 [aA]>[bA]a>g|f>ed>B (3cBA F>D|[G2B,2] [G2B,2] [G2B,2]:|

